!! 00015] TT[TB
!! Zh. Ch. 1-4499, 600832), J 3794)
!!!OTL: Dui hua mi
!!!ARE: Asia, China,ÿAnhui
!! Ethnic Group: Han
!! MM,
!!!SCT: C0684
!!!YEM: Copyright 1995, estate of Helmut Schaffrath.
**kern
*ICvox
*Ivox
!! Mixed meters:  2/4; 3/4
*M3/4
*k[f#]
*G:
{16.dd
32b
16dd
16b
16dd
8.b
=1
16.g
32e
16g
16e
8g
8e}
=2
{8g
16e
16g
8e
8r
=3
16.g
32ee
16ee
16g
8e
8r}
=4
{8a
16e
16g
16.e
32g
16g
16e
=5
16e
16g
16e
16g
8e
8r}
=6
{8.dd
16b
8dd
16b
16b
=7
8g
16a
16g
4e}
=8
{8.b
16dd
8b
8dd
=9
8b
8dd
8dd
16b
16b}
=10
{4g
4e
=11
4g
4e}
=12
{8e
16e
16e
8g
8g
=13
8b
16b
16dd
8b
8b}
=14
{16g
16e
16g
16e
4g
8e
8r
=15
16g
16e
16g
16e
4g
8e
16r}
{16e
=16
*M2/4
8g
8b
8a
16a
16e
=17
4g
4e}
=18
{8g
16e
16g
8e
8r
=19
16.g
32e
16e
16g
8e
8r}
=20
{8a
16e
16g
16.e
32g
16g
16e
=21
16e
16g
16e
16g
8e
8r}
=22
{8.dd
16b
8dd
8b
=23
8b
8dd
8dd
16b
16b}
=24
{8.dd
16b
8dd
16b
16b
=25
8g
16a
16g
4e}
=26
{8.b
16dd
8b
8dd
=27
8b
8dd
8dd
16b
16b}
=28
{4g
4e
=29
4g
4e}
=30
{8e
16e
16e
8g
8g
=31
8b
16b
16dd
8b
8b}
=32
*M3/4
{16g
16e
16g
16e
4g
8e
8r
=33
16g
16e
16g
16e
4g
8e
16r}
{16e
=34
*M2/4
8g
8b
8a
16a
16e
=35
4g
4e}
=36
{16dd
16b
16b
16b
16dd
16b
8b
=37
16dd
16b
16b
16b
16dd
16b
8b
=38
16b
16e
16e
16e
8g
8e}
=39
{8g
16e
16e
8e
16e
16e
=40
8g
8b
8.a
16g
=41
4g
4e}
==
!!!AGN: Xiaodiao. Duichang. Chang huahui
!! Kopie der Noten.
!!    Diese Sammlung enthaelt mit Stand 1987 wenigstens 32 Aufnahmen
!!    mit dem Titel "Dui hua"
!!    Wenig Verzierungen. Angegeben ist der Notentext der ersten beiden
!!    Strophen., Probleme, Form, auch Notation) zu erkennen! Druckfehler in
!!    T.1,2,4,5 und entsprechenden(??): z.B. T.1: 5__.35_3_5_3_^__.  etc.
!!!ONB: ESAC (Essen Associative Code) Database: CHINA
!!!AMT: irregular
!!!AIN: vox
!!!EED: Helmut Schaffrath
!!!EEV: 1.0
*-
